X:325
T:Toss the feathers
R:Reel
O:Ireland
P:APB The Chieftains, more or less
D:Chieftains 9 (Boil the Breakfast early)
B:O'Neill's- 1224, played in C, and transposed up...
S:1 Chieftains 9 (Boil the Breakfast early) a tad simplified...
Z:Transcription, chords:Mike Long
M:C|
L:1/8
K:D
"Em"EB~B2 dB~B2|"Em"EB{c}BA "D"FEFA|\
"Em"BE~E2 "(G)"BA (3(Bcd)|[1 "D"~e2fe "(A)"dBAF:|[2 "D"e2fe "(A)"dBAc|]\
"Em"B2ed ~e2de|
"D"fede fee2|\
"Em"febe febe|"D"fede fe~e2|\
"Em"Be{f}ed e2de|"D"fede fa~a2|\
"G"b2bf "D"~a3f|"A"egfe "(G)"dBAF|]
